img/sl_inst.svg

<svg width="22" height="22" viewBox="0 0 22 22" fill="none" xmlns="http://www.w3.org/2000/svg">
<path d="M11 0C8.01488 0 7.6395 0.01375 6.46663 0.066C5.29375 0.121 4.49487 0.30525 3.795 0.5775C3.06088 0.853626 2.39593 1.28676 1.84663 1.84663C1.2871 2.39621 0.854023 3.06108 0.5775 3.795C0.30525 4.4935 0.119625 5.29375 0.066 6.4625C0.01375 7.63812 0 8.01213 0 11.0014C0 13.9879 0.01375 14.3619 0.066 15.5347C0.121 16.7063 0.30525 17.5051 0.5775 18.205C0.859375 18.9282 1.23475 19.5415 1.84663 20.1534C2.45713 20.7652 3.07037 21.142 3.79363 21.4225C4.49487 21.6947 5.29238 21.8804 6.46388 21.934C7.63813 21.9862 8.01213 22 11 22C13.9879 22 14.3605 21.9862 15.5347 21.934C16.7049 21.879 17.5065 21.6947 18.2064 21.4225C18.94 21.1462 19.6045 20.7131 20.1534 20.1534C20.7652 19.5415 21.1406 18.9282 21.4225 18.205C21.6934 17.5051 21.879 16.7063 21.934 15.5347C21.9862 14.3619 22 13.9879 22 11C22 8.01213 21.9862 7.63813 21.934 6.46388C21.879 5.29375 21.6934 4.4935 21.4225 3.795C21.146 3.06106 20.7129 2.39618 20.1534 1.84663C19.6042 1.28655 18.9392 0.853387 18.205 0.5775C17.5037 0.30525 16.7035 0.119625 15.5334 0.066C14.3591 0.01375 13.9865 0 10.9973 0H11.0014H11ZM10.0141 1.98275H11.0014C13.9384 1.98275 14.2863 1.99238 15.4454 2.046C16.5179 2.09413 17.1009 2.27425 17.4886 2.42412C18.0015 2.6235 18.3686 2.86275 18.7536 3.24775C19.1386 3.63275 19.3765 3.9985 19.5759 4.51275C19.7271 4.89913 19.9059 5.48213 19.954 6.55463C20.0076 7.71375 20.0186 8.06163 20.0186 10.9973C20.0186 13.9329 20.0076 14.2821 19.954 15.4412C19.9059 16.5138 19.7257 17.0954 19.5759 17.4831C19.3995 17.9607 19.118 18.3926 18.7522 18.7467C18.3672 19.1318 18.0015 19.3696 17.4873 19.569C17.1023 19.7203 16.5192 19.899 15.4454 19.9485C14.2863 20.0007 13.9384 20.0131 11.0014 20.0131C8.06438 20.0131 7.71513 20.0007 6.556 19.9485C5.4835 19.899 4.90188 19.7203 4.51412 19.569C4.03631 19.3929 3.60405 19.1119 3.24913 18.7467C2.88303 18.392 2.60112 17.9598 2.42412 17.4818C2.27425 17.0954 2.09413 16.5124 2.046 15.4399C1.99375 14.2808 1.98275 13.9329 1.98275 10.9945C1.98275 8.0575 1.99375 7.711 2.046 6.55187C2.0955 5.47937 2.27425 4.89638 2.4255 4.50863C2.62488 3.99575 2.86412 3.62862 3.24913 3.24362C3.63412 2.85862 3.99988 2.62075 4.51412 2.42138C4.90188 2.27013 5.4835 2.09138 6.556 2.04188C7.57075 1.99513 7.964 1.98138 10.0141 1.98V1.98275ZM16.8726 3.80875C16.6993 3.80875 16.5276 3.84289 16.3675 3.90923C16.2073 3.97557 16.0618 4.0728 15.9392 4.19537C15.8167 4.31794 15.7194 4.46346 15.6531 4.62361C15.5868 4.78376 15.5526 4.95541 15.5526 5.12875C15.5526 5.30209 15.5868 5.47374 15.6531 5.63389C15.7194 5.79404 15.8167 5.93956 15.9392 6.06213C16.0618 6.1847 16.2073 6.28193 16.3675 6.34827C16.5276 6.41461 16.6993 6.44875 16.8726 6.44875C17.2227 6.44875 17.5585 6.30968 17.806 6.06213C18.0536 5.81458 18.1926 5.47884 18.1926 5.12875C18.1926 4.77866 18.0536 4.44292 17.806 4.19537C17.5585 3.94782 17.2227 3.80875 16.8726 3.80875ZM11.0014 5.3515C10.2521 5.33981 9.50798 5.47729 8.81234 5.75594C8.11671 6.0346 7.48346 6.44885 6.94946 6.97458C6.41546 7.50032 5.99138 8.12703 5.70191 8.81823C5.41244 9.50944 5.26336 10.2513 5.26336 11.0007C5.26336 11.7501 5.41244 12.4919 5.70191 13.1831C5.99138 13.8743 6.41546 14.5011 6.94946 15.0268C7.48346 15.5525 8.11671 15.9668 8.81234 16.2454C9.50798 16.5241 10.2521 16.6616 11.0014 16.6499C12.4844 16.6267 13.8988 16.0214 14.9393 14.9645C15.9799 13.9076 16.5631 12.4839 16.5631 11.0007C16.5631 9.51751 15.9799 8.09382 14.9393 7.03691C13.8988 5.97999 12.4844 5.37464 11.0014 5.3515ZM11.0014 7.33288C11.974 7.33288 12.9067 7.71923 13.5944 8.40695C14.2821 9.09467 14.6685 10.0274 14.6685 11C14.6685 11.9726 14.2821 12.9053 13.5944 13.593C12.9067 14.2808 11.974 14.6671 11.0014 14.6671C10.0288 14.6671 9.09605 14.2808 8.40833 13.593C7.72061 12.9053 7.33425 11.9726 7.33425 11C7.33425 10.0274 7.72061 9.09467 8.40833 8.40695C9.09605 7.71923 10.0288 7.33288 11.0014 7.33288Z" fill="white"/>
</svg>

<svg width="22" height="22" fill="none" xmlns="http://www.w3.org/2000/svg"><path d="M11 0C8.015 0 7.64.014 6.467.066c-1.173.055-1.972.24-2.672.512-.734.276-1.4.709-1.948 1.269a5.4 5.4 0 0 0-1.27 1.948C.305 4.494.12 5.294.066 6.463.014 7.638 0 8.013 0 11c0 2.987.014 3.36.066 4.534.055 1.171.24 1.97.512 2.67a5.403 5.403 0 0 0 1.269 1.948c.61.612 1.223.989 1.947 1.27.7.272 1.498.457 2.67.511C7.638 21.986 8.012 22 11 22c2.988 0 3.36-.014 4.535-.066 1.17-.055 1.971-.24 2.671-.512a5.386 5.386 0 0 0 1.947-1.269 5.404 5.404 0 0 0 1.27-1.948c.27-.7.456-1.499.511-2.67.052-1.173.066-1.547.066-4.535 0-2.988-.014-3.362-.066-4.536-.055-1.17-.24-1.97-.512-2.669a5.4 5.4 0 0 0-1.269-1.948 5.379 5.379 0 0 0-1.948-1.27C17.504.305 16.703.12 15.533.066 14.36.014 13.987 0 10.997 0h.004H11Zm-.986 1.983h.987c2.937 0 3.285.01 4.444.063 1.073.048 1.656.228 2.044.378.512.2.88.439 1.265.824a3.4 3.4 0 0 1 .822 1.265c.151.386.33.97.378 2.042.054 1.159.065 1.507.065 4.442 0 2.936-.011 3.285-.065 4.444-.048 1.073-.228 1.654-.378 2.042-.177.478-.458.91-.824 1.264-.385.385-.75.623-1.265.822-.385.151-.968.33-2.042.38-1.159.052-1.507.064-4.444.064-2.937 0-3.286-.012-4.445-.065-1.072-.049-1.654-.228-2.042-.379a3.407 3.407 0 0 1-1.265-.822 3.41 3.41 0 0 1-.825-1.265c-.15-.387-.33-.97-.378-2.042-.052-1.16-.063-1.507-.063-4.445 0-2.938.01-3.284.063-4.443.05-1.073.228-1.656.38-2.043.199-.513.438-.88.823-1.265.385-.385.75-.623 1.265-.823.388-.15.97-.33 2.042-.38 1.015-.046 1.408-.06 3.458-.061v.003Zm6.859 1.826a1.32 1.32 0 1 0 0 2.64 1.32 1.32 0 0 0 0-2.64ZM11 5.35a5.65 5.65 0 1 0-.176 11.3 5.65 5.65 0 0 0 .176-11.3Zm0 1.982a3.667 3.667 0 1 1 0 7.334 3.667 3.667 0 0 1 0-7.334Z" fill="#fff"/></svg>
